X: 94
T: No_183_Old_Man's_Dance_Song_(b).krn
N: Derived from No_183_Old_Man's_Dance_Song_(b).krn
%%abc-version 2.0
%%abcx-abcm2ps-target-version 5.9.1 (29 Sep 2008)
%%abc-creator hum2abc beta
%%abcx-conversion-date 2019/03/15 08:38:45
%%humdrum-veritas 2040400274
%%humdrum-veritas-data 2335794063
%%linebreak <none>
%%barnumbers 0
L: 1/8
M: 3/4
K: Eb clef=bass
[K:clef=bass][M:3/4](B,2G,) B,//G,3// (A,/G,)G,/ ||  
[M:2/4]A,G, A, z ||  
[M:3/4]B,3B,/G,/ A,/G,G,/ ||  
[M:3/8]E,E,E, | 
[M:2/4]B,B,/G,/ (A,/G,)G,/ [I:setbarnb 6]| 
A,G, A, z | 
(3:2:4B,G,A,/G,/ A,/G,G,/ ||  
[M:3/8]E,E,E, :|]  



